packages/icon/src/svg/warning-filled.icon.svg

<svg width="24" height="24" viewBox="0 0 24 24" fill="none" xmlns="http://www.w3.org/2000/svg">
<path fill-rule="evenodd" clip-rule="evenodd" d="M2 12C2 6.48609 6.48609 2 12 2C17.5139 2 22 6.48609 22 12C22 17.5139 17.5139 22 12 22C6.48609 22 2 17.5139 2 12ZM12.5 18H11.5C11.2239 18 11 17.7761 11 17.5V16.5C11 16.2239 11.2239 16 11.5 16H12.5C12.7761 16 13 16.2239 13 16.5V17.5C13 17.7761 12.7761 18 12.5 18ZM12.5 14H11.5C11.2239 14 11 13.7761 11 13.5V7C11 6.72386 11.2239 6.5 11.5 6.5H12.5C12.7761 6.5 13 6.72386 13 7V13.5C13 13.7761 12.7761 14 12.5 14Z" fill="white"/>
</svg>

<svg aria-label="warning filled icon" viewBox="0 0 24 24"><path fill-rule="evenodd" clip-rule="evenodd" d="M2 12C2 6.486 6.486 2 12 2s10 4.486 10 10-4.486 10-10 10S2 17.514 2 12zm10.5 6h-1a.5.5 0 01-.5-.5v-1a.5.5 0 01.5-.5h1a.5.5 0 01.5.5v1a.5.5 0 01-.5.5zm0-4h-1a.5.5 0 01-.5-.5V7a.5.5 0 01.5-.5h1a.5.5 0 01.5.5v6.5a.5.5 0 01-.5.5z"/></svg>
